X:1
T:Title
%%score ( 1 2 ) { 3 | 4 }
L:1/8
Q:1/4=103
M:4/4
K:G
V:1 treble nm="Grand Piano, Soprano"
V:2 treble 
V:3 bass nm="Choir Pad, Christian, Let Your Light Shine"
V:4 bass 
V:1
 [DG]2 [EG]2 [DG]2 [B,D]2 | [DG]2 [DA]2 B2- [GB]2 | [Ge]2 [Gd]2 [Fc]2 [GB]2 | [DA]2 [EG]2 [FA]4 | %4
w: By~Emmet~G.~Coleman * * *||||
 [DG]2 [EG]2 [DG]2 [B,D]2 | [DG]2 [DA]2 B2- [GB]2 | [Ge]2 [Gd]2 [Ec]2 [EA]2 | [DG]2 [DF]2 [DG]4 | %8
w: ||||
 [Gd]>[Gd] [Fd]>[Fd] [Gd]2 [GB]2 | [Ge]>[Gd] [Fc]>[GB] [FA]4 | [Fc]>[Fc] [Fc]>[Fc] [Fc]2 [FA]2 | %11
w: |||
 [Bd]>[Ac] [GB]>[FA] [GB]4 | [DG]2 [EG]2 [DG]2 [B,D]2 | [DG]2 [DA]2 B2- [GB]2 | %14
w: |||
 [Ge]2 [Gd]2 [Ec]2 [EA]2 | [DG]2 [DF]2 [DG]4- | [DG]4 z4 |] %17
w: |||
V:2
 x8 | z4 D2 z2 | x8 | x8 | x8 | z4 D2 z2 | x8 | x8 | x8 | x8 | x8 | x8 | x8 | z4 D2 z2 | x8 | x8 | %16
 x8 |] %17
V:3
 B,2 C2 B,2 G,2 | G,2 F,2 G,2[K:treble] D2 | C2 D2 D2 D2 | D2 ^C2 D2 =C2 | B,2 C2 B,2 G,2 | %5
 G,2 F,2 G,2[K:treble] D2 | C2 B,2 C2 C2 | B,2 A,2 B,4 | B,>A, A,>A, B,2[K:treble] D2 | %9
 C>D D>D D4 | A,>A, A,>A, A,2[K:treble] D2 | D>D D>D D4 | B,2 C2 B,2 G,2 | %13
 G,2 F,2 G,2[K:treble] D2 | C2 B,2 C2 C2 | B,2 A,2 B,4- | B,4 z4 |] %17
V:4
 G,2 G,2 G,2 G,,2 | B,,2 D,2 z4 | z2 B,2 A,2 G,2 | F,2 E,2 D,4 | G,2 G,2 G,2 G,,2 | B,,2 D,2 z4 | %6
 G,2 G,2 C,2 C,2 | D,2 D,2 [G,,G,]4 | G,>F, D,>D, G,2 G,2 | z z/ B,/ A,>G, D,4 | %10
 D,>D, D,>D, D,2 D,2 | D,>D, D,>D, G,4 | G,2 G,2 G,2 G,,2 | B,,2 D,2 z4 | G,2 G,2 C,2 C,2 | %15
 D,2 D,2 [G,,G,]4- | [G,,G,]4 z4 |] %17

